X:1
T:Alisan Joyce
C:Bruce Shawyer
R:Strathspey
Q:128
K:Em
M:4/4
L:1/16
|:BEE2 E3F G3F E4|ADD2 D3E F3E D4|BEE2 E3F G3F E4|BB,B,2 B,3B, E4E4|
BEE2 E3F G3F E4|ADD2 D3E F3E D4|BEE2 E3F G3F E4|BB,B,2 B,3B, E4E4|
ddd2 d3d d3c B4|ccc2 c3c c3B A4|BBB2 B3B B3A G4|AAA2 A3A D4D4|
ddd2 d3d d3c B4|ccc2 c3c c3B A4|BBB2 B3B B3A G4|(3BB,B, (3B,B,B, E4E4:|
